DenisNovikLanding/build/img/svg/PR.svg

<svg width="90" height="87" viewBox="0 0 90 87" fill="none" xmlns="http://www.w3.org/2000/svg">
<g clip-path="url(#clip0_254_464)">
<path d="M4.19635 3.70898H85.7809V83.0685H4.19635V3.70898Z" fill="url(#paint0_radial_254_464)"/>
<path d="M4.19634 3.70952H85.7809V83.069H4.19634V3.70952ZM0.486816 86.775H89.4868V0H0.486816V86.775ZM53.8868 36.6395C53.8868 36.1945 53.8868 35.1194 53.7017 33.0439C53.7017 32.7484 53.7373 32.6737 53.9972 32.5633C56.2578 31.6377 61.5622 30.0037 67.5679 30.0037C67.8634 30.0037 68.0129 30.0784 68.0129 30.3739V35.7495C68.0129 36.045 67.9025 36.1198 67.6035 36.1198C65.2681 36.0094 61.8933 36.3049 60.5939 36.8602V60.2245C60.5939 60.52 60.4835 60.6695 60.1489 60.6695H54.3283C54.0328 60.6695 53.8833 60.5592 53.8833 60.2245L53.8868 36.6395ZM30.1523 40.0144C31.0067 40.0892 31.6724 40.0892 33.1569 40.0892C37.4966 40.0892 41.5763 38.569 41.5763 32.6737C41.5763 27.9638 38.6821 25.5893 33.7159 25.5893C32.2313 25.5893 30.8251 25.664 30.1559 25.6996L30.1523 40.0144ZM23.5912 20.3205C23.5912 20.0606 23.666 19.8755 23.9615 19.8755C26.336 19.7651 29.8212 19.6904 33.4916 19.6904C43.7622 19.6904 48.2513 25.3258 48.2513 32.5598C48.2513 41.9795 41.4268 46.0201 33.0466 46.0201C31.6368 46.0201 31.1562 45.9454 30.1523 45.9454V60.1854C30.1523 60.4808 30.0419 60.6304 29.7073 60.6304H23.9971C23.7016 60.6304 23.5521 60.52 23.5521 60.1854V20.3205H23.5912Z" fill="#E579FF"/>
</g>
<defs>
<radialGradient id="paint0_radial_254_464" cx="0" cy="0" r="1" gradientUnits="userSpaceOnUse" gradientTransform="translate(31.067 21.4951) scale(62.0035 60.0306)">
<stop stop-color="#4B2D4F" stop-opacity="0.98"/>
<stop offset="1" stop-color="#180024"/>
</radialGradient>
<clipPath id="clip0_254_464">
<rect width="89" height="86.775" fill="white" transform="translate(0.486816)"/>
</clipPath>
</defs>
</svg>

<svg width="90" height="87" fill="none" xmlns="http://www.w3.org/2000/svg"><g clip-path="url(#clip0_254_464)"><path d="M4.196 3.709h81.585v79.36H4.196V3.709z" fill="url(#paint0_radial_254_464)"/><path d="M4.196 3.71h81.585v79.359H4.196V3.709zM.486 86.775h89V0h-89v86.775zm53.4-50.136c0-.445 0-1.52-.184-3.595 0-.296.035-.37.295-.48 2.26-.926 7.565-2.56 13.57-2.56.296 0 .446.074.446.37v5.375c0 .296-.11.37-.41.37-2.335-.11-5.71.186-7.01.741v23.364c0 .296-.11.446-.444.446h-5.82c-.296 0-.446-.11-.446-.446l.004-23.584zm-23.734 3.375c.855.075 1.52.075 3.005.075 4.34 0 8.42-1.52 8.42-7.415 0-4.71-2.895-7.085-7.861-7.085-1.485 0-2.89.075-3.56.11l-.004 14.315zm-6.56-19.694c0-.26.074-.445.37-.445 2.374-.11 5.86-.185 9.53-.185 10.27 0 14.76 5.636 14.76 12.87 0 9.42-6.825 13.46-15.205 13.46-1.41 0-1.89-.075-2.895-.075v14.24c0 .296-.11.445-.445.445h-5.71c-.295 0-.445-.11-.445-.445V20.32h.04z" fill="#E579FF"/></g><defs><radialGradient id="paint0_radial_254_464" cx="0" cy="0" r="1" gradientUnits="userSpaceOnUse" gradientTransform="matrix(62.0035 0 0 60.0306 31.067 21.495)"><stop stop-color="#4B2D4F" stop-opacity=".98"/><stop offset="1" stop-color="#180024"/></radialGradient><clipPath id="clip0_254_464"><path fill="#fff" transform="translate(.487)" d="M0 0h89v86.775H0z"/></clipPath></defs></svg>
